X:3011
T:Springlek efter Lissmyr Erik Persson
B:EÖ, nr 317
S:efter Lissmyr Erik Persson
R:Springlek
O:Västra Fors, Malungs sn, Dalarna
Z:Nils L
L:1/8
M:3/4
%%tuplets 0 0 1
K:A
A>c e>c  e>c | d>e f>d  f>d | e>g b>a g>f  | (3efg a>e    c>e |
A>c Pe>c e>c | d>e Pf>d f>d | e>g b>a Pg>f | ef/g/ [A4a4]     ::
{e}a>(c e>)(A c2) | ((3BcB) A2 Pf2 | dd  (Bc/B/) GB  | TB3/2A/ A>c e2 |
   a>(c e>)(A c2) | ((3BcB) A2 Tf2 | d>d (Bc/B/) G>B | T(BA) A4 :|
(:musicend:)
(:music:)
